smiling-axolotl/src/assets/logoAxolotl.svg

<svg width="96" height="50" viewBox="0 0 96 50" fill="none" xmlns="http://www.w3.org/2000/svg">
<path d="M19.645 1.06516C20.7267 1.36264 22.2109 2.0304 23.5428 3.1432C24.8594 4.24319 26.1831 5.91798 26.606 8.23451L26.6069 8.23934L26.6079 8.24395L26.6425 8.44966L26.6439 8.45933C26.8671 9.90548 27.439 11.3928 28.1047 12.5442C28.1545 12.612 28.1971 12.6821 28.2255 12.731C28.282 12.8282 28.3463 12.9501 28.4132 13.0906C28.5467 13.3714 28.6982 13.744 28.8171 14.1659C29.0467 14.9806 29.1953 16.1237 28.6759 17.1292L28.4095 17.6452L27.8498 17.4858C27.3026 17.3299 26.781 16.9288 26.322 16.4536C25.849 15.9639 25.3802 15.3303 24.9481 14.6089C24.0845 13.1671 23.3295 11.3103 22.9804 9.40241L22.9794 9.3978L22.9787 9.39319L22.9191 9.04098L22.9182 9.03591L22.9175 9.03085C22.7186 7.7421 21.9927 6.75191 21.121 6.02356C20.6109 5.5974 20.0637 5.27289 19.5747 5.04248C19.5923 5.34516 19.6175 5.67558 19.653 6.01296C19.7385 6.82451 19.8768 7.62247 20.0785 8.17531L20.082 8.18498L20.0852 8.19466L20.1349 8.34416L20.1383 8.35429L20.1413 8.36443C20.4323 9.3372 20.2435 10.319 20.0385 11.2195C19.8243 12.1607 19.5738 13.0793 19.5407 14.1473L19.5405 14.2325C19.5511 14.6443 19.7305 15.1209 20.0524 15.7123C20.2106 16.003 20.391 16.3004 20.5844 16.6181C20.7746 16.9306 20.9775 17.2628 21.1646 17.601C21.5358 18.2715 21.8832 19.0302 21.9786 19.8465C22.0773 20.6921 21.9012 21.5608 21.2991 22.4182L21.2936 22.426L21.2878 22.4336L21.2388 22.4995L21.2344 22.5055L21.23 22.5112C20.4346 23.536 19.1421 23.5545 17.9801 23.2988C16.7847 23.0357 15.4191 22.4224 14.1063 21.7635C13.4435 21.4309 12.7782 21.0784 12.142 20.7423C11.5024 20.4045 10.893 20.0838 10.3281 19.8071C9.76139 19.5295 9.25693 19.3046 8.82784 19.1545C8.43907 19.0185 8.16453 18.963 7.98712 18.9578L7.9171 18.9585C7.22174 18.9981 6.6928 19.4271 6.28903 20.0907C6.1198 20.3688 5.98457 20.6713 5.87953 20.9676C6.01432 20.9424 6.1523 20.9219 6.29157 20.9084C6.92859 20.8466 7.77461 20.9099 8.37859 21.512C8.86958 22.0014 9.29875 22.4669 9.73281 23.2115C10.1564 23.9382 10.5721 24.9083 11.0836 26.4001L11.1198 26.5005L11.1547 26.5885C11.5308 27.4934 12.3688 28.2787 13.3716 28.9066C14.3944 29.5469 15.496 29.9654 16.1868 30.1512L17.09 30.394L16.6123 31.1956C14.2257 35.2023 10.3052 35.7137 8.5637 35.4383L8.43706 35.4183L8.32544 35.3554C6.43466 34.2901 5.45891 34.5075 4.97086 34.8511C4.70683 35.0371 4.50433 35.3125 4.35984 35.6249C5.90996 35.3666 7.32328 36.0324 8.51193 36.8396C9.26997 37.3543 9.99551 37.9662 10.6426 38.493C11.3093 39.0358 11.8835 39.4799 12.4047 39.7485L12.4768 39.7835C12.8277 39.9428 13.3304 40.0225 13.9688 40.0092C14.6009 39.9961 15.3127 39.8934 16.0419 39.7347C17.5014 39.4169 18.9583 38.891 19.8534 38.502L20.6572 39.6322C20.5672 39.7288 20.4412 39.9863 20.3577 40.4808C20.2787 40.948 20.2535 41.5275 20.2751 42.1545C20.3186 43.4111 20.5455 44.7521 20.8113 45.5827L20.8485 45.6866C21.0522 46.2034 21.5554 46.7565 22.1958 47.2629C22.8222 47.7582 23.4979 48.1449 23.9237 48.3465L25.3521 49.0228L23.896 49.6374C22.3185 50.3031 20.7662 49.9682 19.5869 49.3098C18.4373 48.668 17.5158 47.6479 17.2221 46.7333L17.2194 46.7246L17.1517 46.5039L17.1505 46.5002L17.1494 46.4963C16.8915 45.6199 16.6946 44.5388 16.5878 43.4597C15.7429 43.6319 14.8189 43.7619 13.9078 43.7686C12.9772 43.7755 11.7871 43.659 10.6828 43.0921L10.675 43.0879L10.5158 43.0036L10.5074 42.999C9.65045 42.5305 8.85298 41.8884 8.2575 41.4036C7.53057 40.8117 6.97407 40.3423 6.38932 39.9452C5.79896 39.5443 5.4367 39.3939 5.20866 39.3481C5.04616 39.3155 4.9394 39.3321 4.82157 39.3845L4.77027 39.4092L0 41.8371L0.323765 36.5074C0.39795 35.2877 0.893113 33.121 2.79533 31.7814C4.81183 30.3615 7.24309 30.6244 9.53107 31.7425C9.81153 31.7339 10.1783 31.6845 10.5862 31.5589C9.40392 30.6878 8.13098 29.4078 7.52077 27.6304L7.34583 27.1301L7.20486 26.7447C6.88825 25.8986 6.65601 25.4135 6.47298 25.0995C6.39734 24.9697 6.32553 24.8607 6.24651 24.756C6.22071 24.7661 6.20163 24.774 6.19104 24.7788L1.20932 27.0847L1.86355 21.6488L1.88712 21.4712C2.01862 20.5594 2.3619 19.2976 3.06525 18.1416C3.80297 16.9292 5.21048 15.439 7.48264 15.2228L7.48957 15.2221L7.4965 15.2216L7.68877 15.2071L7.70287 15.206L7.71697 15.2055L7.86579 15.2002L7.8792 15.1998C8.74832 15.1851 9.55005 15.4231 10.0922 15.6137L10.3339 15.7019C10.8996 15.9154 11.4769 16.1813 12.0211 16.4485C12.4933 16.6804 12.9853 16.9359 13.4708 17.1912L13.9531 17.4455L13.9545 17.4462L14.0129 17.4773L14.9463 17.9682C15.2537 18.1284 15.5579 18.2848 15.8598 18.4358C16.6137 18.8128 17.2634 19.1079 17.8077 19.3174C17.6651 19.0658 17.5088 18.8107 17.3146 18.4913C17.1217 18.1742 16.8886 17.789 16.6763 17.3895C16.3058 16.6924 15.7977 15.5995 15.7709 14.3011L15.7706 14.2922V14.2829L15.7718 14.0554V14.0466L15.772 14.0376C15.8196 12.4731 16.2122 11.0576 16.3796 10.3105C16.4802 9.86129 16.5121 9.61476 16.5196 9.4858C16.5215 9.45425 16.5215 9.43278 16.5212 9.41968L16.4716 9.27733L16.4699 9.27272L16.4685 9.26834C16.1509 8.31908 15.9916 7.24154 15.9035 6.40549C15.8045 5.466 15.7706 4.57451 15.7706 4.00588V0L19.645 1.06516Z" fill="white"/>
<path d="M79.5419 4.00588L79.5402 4.2337C79.5324 4.7981 79.4956 5.58343 79.409 6.40549C79.3209 7.24154 79.1616 8.31908 78.844 9.26834L78.8426 9.27272L78.791 9.41968C78.7908 9.43279 78.791 9.45426 78.7929 9.4858C78.8004 9.61477 78.8323 9.86131 78.9329 10.3105C79.0951 11.0343 79.4685 12.3853 79.5349 13.8913L79.5405 14.0376L79.5407 14.0466V14.0554L79.5419 14.2829V14.2922L79.5416 14.3011C79.5148 15.5995 79.0067 16.6924 78.6362 17.3895C78.4239 17.789 78.1908 18.1742 77.9979 18.4913C77.8037 18.8107 77.6472 19.0658 77.5045 19.3174C78.049 19.1079 78.6988 18.8128 79.4527 18.4358C80.0565 18.1338 80.6689 17.8105 81.2996 17.4773L81.358 17.4462L81.3594 17.4455C81.9968 17.1088 82.6619 16.7577 83.2914 16.4485C83.9133 16.1431 84.5785 15.8394 85.2203 15.6137L85.4355 15.5407C85.964 15.3677 86.6728 15.187 87.4333 15.1998L87.4467 15.2002L87.5955 15.2055L87.6096 15.206L87.6237 15.2071L87.8162 15.2216L87.8232 15.2221L87.8301 15.2228C90.1022 15.439 91.5096 16.9293 92.2473 18.1416C92.9975 19.3747 93.3381 20.7282 93.4489 21.6488L94.1032 27.0847L89.1215 24.7788C89.1108 24.7739 89.0916 24.7661 89.0658 24.756C88.9868 24.8606 88.9151 24.9698 88.8395 25.0995C88.6303 25.4584 88.3569 26.0406 87.9667 27.1301L87.7917 27.6304C87.1815 29.4078 85.9084 30.6877 84.726 31.5589C85.1339 31.6845 85.5007 31.7339 85.7812 31.7425C88.0693 30.6243 90.5008 30.3614 92.5174 31.7814C94.4196 33.121 94.9146 35.2877 94.9887 36.5074L95.3125 41.8371L90.5422 39.4092C90.4024 39.338 90.2895 39.3109 90.1038 39.3481C89.8758 39.3939 89.5135 39.5443 88.9232 39.9452C88.3384 40.3423 87.7819 40.8117 87.055 41.4036C86.4595 41.8884 85.6621 42.5305 84.8051 42.999L84.7967 43.0036L84.6375 43.0879L84.6297 43.0921C83.5254 43.659 82.3353 43.7755 81.4047 43.7686C80.4935 43.7619 79.5694 43.6319 78.7245 43.4597C78.6177 44.5388 78.421 45.6199 78.1631 46.4963L78.162 46.5002L78.1608 46.5039L78.0931 46.7246L78.0904 46.7333C77.7967 47.6479 76.8752 48.668 75.7256 49.3098C74.5463 49.9682 72.994 50.3031 71.4165 49.6374L69.9604 49.0228L71.3888 48.3465C71.8146 48.1449 72.4903 47.7582 73.1167 47.2629C73.7571 46.7565 74.26 46.2033 74.4638 45.6866L74.501 45.5827C74.7667 44.7521 74.9939 43.4112 75.0374 42.1545C75.059 41.5274 75.0338 40.948 74.9548 40.4808C74.8713 39.9863 74.7453 39.7288 74.6554 39.6322L75.4593 38.502C76.3545 38.891 77.8112 39.4169 79.2706 39.7347C79.9998 39.8934 80.7116 39.9961 81.3437 40.0092C81.9819 40.0225 82.4845 39.9428 82.8354 39.7835L82.9075 39.7485C83.4288 39.48 84.0031 39.0359 84.6699 38.493C85.317 37.9662 86.0425 37.3543 86.8006 36.8396C87.9892 36.0324 89.4024 35.3667 90.9524 35.6249C90.8079 35.3126 90.6057 35.0371 90.3416 34.8511C89.8537 34.5075 88.8781 34.2901 86.9873 35.3554L86.8757 35.4183L86.749 35.4383C85.0076 35.7137 81.0869 35.2024 78.7002 31.1956L78.2225 30.394L79.1257 30.1512C79.8165 29.9654 80.9181 29.5468 81.9409 28.9066C82.9762 28.2584 83.8358 27.4426 84.1929 26.5005L84.2285 26.4015C84.7401 24.9089 85.1559 23.9384 85.5797 23.2115C86.0138 22.4669 86.4429 22.0014 86.9339 21.512C87.5379 20.9099 88.3839 20.8466 89.0209 20.9084C89.1601 20.9219 89.298 20.9424 89.4327 20.9676C89.3277 20.6713 89.1927 20.3688 89.0235 20.0907C88.6323 19.4479 88.1237 19.0251 87.4601 18.9633L87.3954 18.9585C87.2239 18.9487 86.9289 18.9991 86.4847 19.1545C86.0556 19.3046 85.5511 19.5295 84.9844 19.8071C84.4195 20.0838 83.8101 20.4045 83.1705 20.7423C82.5343 21.0784 81.869 21.4309 81.2062 21.7635C79.8934 22.4224 78.5278 23.0357 77.3324 23.2988C76.1704 23.5545 74.8779 23.536 74.0825 22.5112L74.0781 22.5055L74.0737 22.4995L74.0247 22.4336L74.0189 22.426L74.0134 22.4182C73.4113 21.5608 73.2352 20.6921 73.3339 19.8465C73.4293 19.0302 73.7767 18.2715 74.1479 17.601C74.335 17.2628 74.5379 16.9306 74.7281 16.6181C74.9215 16.3004 75.1019 16.003 75.2601 15.7123C75.582 15.1209 75.7612 14.6443 75.7718 14.2325L75.7715 14.1473C75.7385 13.0793 75.4882 12.1607 75.274 11.2195C75.069 10.319 74.8802 9.3372 75.1712 8.36443L75.1742 8.35429L75.1776 8.34416L75.2273 8.19466L75.2305 8.18498L75.234 8.17531C75.4357 7.62247 75.574 6.82451 75.6595 6.01296C75.695 5.67559 75.72 5.34516 75.7376 5.04248C75.2486 5.27289 74.7016 5.59746 74.1915 6.02356C73.3198 6.75191 72.5939 7.74211 72.395 9.03085L72.3943 9.03591L72.3934 9.04098L72.3338 9.39319L72.3331 9.3978L72.3321 9.40241C71.983 11.3103 71.228 13.1671 70.3644 14.6089C69.9323 15.3303 69.4635 15.9639 68.9905 16.4536C68.5315 16.9288 68.0099 17.3299 67.4627 17.4858L66.903 17.6452L66.6366 17.1292C66.1172 16.1237 66.2658 14.9806 66.4954 14.1659C66.6143 13.744 66.7658 13.3714 66.8993 13.0906C66.9662 12.9501 67.0305 12.8282 67.087 12.731C67.1154 12.6821 67.1578 12.612 67.2076 12.5442C67.8733 11.3928 68.4454 9.90552 68.6686 8.45933L68.67 8.44966L68.7046 8.24395L68.7056 8.23934L68.7065 8.23451C69.1294 5.91798 70.4531 4.24319 71.7697 3.1432C73.1016 2.0304 74.5858 1.36264 75.6675 1.06516L79.5419 0V4.00588Z" fill="white"/>
<path d="M48.163 40.5914C48.8332 41.2724 50.0052 42.3053 51.3136 43.1623C52.6496 44.0375 54.0044 44.6463 55.0709 44.6463C57.2227 44.6463 59.451 44.1656 61.133 43.4061C61.9744 43.0261 62.6482 42.5902 63.1068 42.1375C63.5652 41.685 63.7636 41.2631 63.7805 40.8927L63.7819 40.8394H65.2017L65.1996 40.9406C65.152 42.4948 64.0345 44.0131 62.3089 45.1084C60.5585 46.2193 58.0859 46.9687 55.0709 46.9687C50.6536 46.9687 48.5344 46.0627 47.656 45.5138C46.796 46.0511 44.7474 46.9307 40.5186 46.9676L40.2416 46.9687C37.224 46.9687 34.7497 46.2179 32.999 45.1054C31.2759 44.0104 30.1598 42.4931 30.1126 40.9399C30.1113 40.9059 30.1108 40.8723 30.1108 40.8394H31.5306L31.5316 40.8851L31.5364 40.9553C31.5717 41.3095 31.7716 41.7081 32.202 42.134C32.6598 42.5871 33.3334 43.0235 34.1751 43.404C35.8577 44.1647 38.0879 44.6463 40.2416 44.6463L40.3423 44.6445C41.3927 44.6079 42.7046 44.0102 43.9989 43.1623C45.3073 42.3053 46.4793 41.2724 47.1495 40.5914L47.6563 40.0763L48.163 40.5914Z" fill="white"/>
<path d="M31.4451 28.6205C33.3736 28.1054 35.1639 28.6581 36.0204 29.9782C36.9042 31.3404 36.5828 33.1702 34.9964 34.7516L34.9301 34.8177L34.8487 34.8645C32.8206 36.0291 31.3237 36.3225 30.1982 36.0925C29.1144 35.8711 28.5235 35.1968 28.2117 34.6954L28.153 34.5975C27.9575 34.26 27.8473 33.7831 27.8216 33.2905C27.7949 32.7804 27.8548 32.1842 28.0591 31.5824C28.4784 30.3478 29.4915 29.1423 31.4451 28.6205Z" fill="white"/>
<path d="M59.2921 29.9782C60.1486 28.6581 61.9389 28.1054 63.8674 28.6205C65.821 29.1423 66.8341 30.3478 67.2534 31.5824C67.4577 32.1842 67.5176 32.7804 67.4909 33.2905C67.4668 33.7523 67.3686 34.2003 67.1954 34.5325L67.1595 34.5975C66.8657 35.1049 66.2704 35.8563 65.1143 36.0925C63.9888 36.3225 62.4919 36.0291 60.4638 34.8645L60.3824 34.8177L60.3161 34.7516C58.7297 33.1702 58.4083 31.3404 59.2921 29.9782Z" fill="white"/>
</svg>

<svg xmlns="http://www.w3.org/2000/svg" width="96" height="50" fill="none"><path fill="#fff" d="M19.645 1.065c1.082.298 2.566.965 3.898 2.078 1.316 1.1 2.64 2.775 3.063 5.092v.004l.002.005.034.206.002.01c.223 1.445.795 2.933 1.46 4.084.05.068.093.138.122.187.056.097.12.22.187.36.134.28.285.653.404 1.075.23.815.378 1.958-.141 2.963l-.266.516-.56-.16c-.547-.155-1.069-.556-1.528-1.031-.473-.49-.942-1.124-1.374-1.845a16.1 16.1 0 0 1-1.968-5.207v-.004l-.001-.005-.06-.352v-.005l-.002-.005c-.198-1.289-.924-2.28-1.796-3.007a7.3 7.3 0 0 0-1.546-.982c.017.303.043.634.078.971.085.812.224 1.61.425 2.162l.004.01.003.01.05.15.003.01.003.01c.291.972.103 1.954-.102 2.855-.215.94-.465 1.86-.498 2.927v.085c.01.412.19.889.511 1.48.159.291.339.588.532.906.19.313.393.645.58.983.372.67.72 1.43.815 2.246.098.845-.078 1.714-.68 2.571l-.005.008-.006.008-.05.066-.004.006-.004.005c-.795 1.025-2.088 1.044-3.25.788-1.195-.263-2.56-.877-3.874-1.535-.662-.333-1.328-.686-1.964-1.022a69 69 0 0 0-1.814-.935 14 14 0 0 0-1.5-.652c-.389-.137-.663-.192-.84-.197h-.07c-.696.04-1.225.47-1.629 1.133-.17.278-.304.58-.41.877a5 5 0 0 1 .413-.06c.637-.061 1.483.002 2.087.604.49.49.92.955 1.354 1.7.423.726.84 1.696 1.35 3.188l.037.1.035.088c.376.905 1.214 1.69 2.217 2.319a11.1 11.1 0 0 0 2.815 1.244l.903.243-.478.802c-2.386 4.006-6.307 4.518-8.048 4.242l-.127-.02-.112-.063c-1.89-1.065-2.866-.847-3.354-.504-.264.186-.467.462-.611.774 1.55-.258 2.963.407 4.152 1.215.758.514 1.484 1.126 2.13 1.653.667.543 1.242.987 1.763 1.255l.072.035c.35.16.853.24 1.492.226.632-.013 1.344-.116 2.073-.274a22 22 0 0 0 3.811-1.233l.804 1.13c-.09.097-.216.354-.3.849-.078.467-.104 1.047-.082 1.673.044 1.257.27 2.598.536 3.429l.038.104c.203.516.706 1.07 1.347 1.576a9.6 9.6 0 0 0 1.728 1.084l1.428.676-1.456.614c-1.578.666-3.13.331-4.31-.327-1.149-.642-2.07-1.662-2.364-2.577l-.003-.008-.067-.221-.002-.004v-.004c-.258-.876-.455-1.957-.562-3.036-.845.172-1.77.302-2.68.309-.93.007-2.12-.11-3.225-.677l-.008-.004-.16-.084-.008-.005c-.857-.468-1.654-1.11-2.25-1.595-.726-.592-1.283-1.062-1.868-1.459-.59-.4-.952-.551-1.18-.597a.58.58 0 0 0-.387.037l-.052.024L0 41.837l.324-5.33c.074-1.22.57-3.386 2.471-4.726 2.017-1.42 4.448-1.157 6.736-.038.28-.01.647-.058 1.055-.184-1.182-.871-2.455-2.151-3.065-3.929l-.175-.5-.141-.385c-.317-.846-.549-1.332-.732-1.646a3 3 0 0 0-.226-.343l-.056.023-4.982 2.306.655-5.436.023-.178c.132-.912.475-2.173 1.178-3.33.738-1.212 2.145-2.702 4.418-2.918h.007l.006-.001.193-.015.014-.001h.014l.149-.006h.013c.87-.015 1.671.223 2.213.414l.242.088c.566.213 1.143.48 1.687.746.472.232.964.488 1.45.743l.482.255h.002l.058.031.933.491q.461.24.914.468 1.13.567 1.948.881c-.143-.251-.3-.506-.493-.826a22 22 0 0 1-.639-1.101c-.37-.698-.878-1.79-.905-3.089v-.254l.001-.01c.048-1.564.44-2.98.608-3.727.1-.449.132-.695.14-.824l.001-.066-.05-.143-.001-.004-.002-.005c-.317-.949-.476-2.026-.565-2.863a24 24 0 0 1-.132-2.4V0zM79.542 4.006l-.002.228c-.008.564-.044 1.35-.131 2.171-.088.837-.247 1.914-.565 2.863l-.001.005-.052.147q0 .019.002.066c.007.129.04.375.14.824.162.724.535 2.075.602 3.581l.005.147v.017l.002.228v.018000000000000002c-.027 1.299-.535 2.391-.906 3.089-.212.399-.445.784-.638 1.101-.194.32-.35.575-.494.826q.818-.315 1.949-.881a94 94 0 0 0 1.847-.959l.058-.03.001-.002a76 76 0 0 1 1.932-.997c.622-.305 1.288-.609 1.93-.834l.215-.073c.528-.173 1.237-.354 1.997-.341h.014l.148.006h.015l.014.001.192.015h.014c2.272.217 3.68 1.707 4.417 2.92.75 1.233 1.091 2.586 1.202 3.507l.654 5.436-4.981-2.306-.056-.023c-.08.105-.15.214-.227.343-.209.36-.482.942-.872 2.031l-.175.5c-.61 1.778-1.884 3.058-3.066 3.929.408.125.775.175 1.055.183 2.288-1.118 4.72-1.38 6.736.04 1.903 1.339 2.398 3.506 2.472 4.725l.323 5.33-4.77-2.428a.6.6 0 0 0-.438-.06c-.228.045-.59.195-1.18.596-.586.397-1.142.867-1.869 1.459-.596.484-1.393 1.127-2.25 1.595l-.008.005-.16.084-.007.004c-1.105.567-2.295.684-3.225.677-.912-.007-1.836-.137-2.68-.31-.107 1.08-.304 2.16-.562 3.037l-.001.004-.001.004-.068.22-.003.01c-.293.914-1.215 1.934-2.364 2.576-1.18.658-2.732.993-4.31.327l-1.456-.614 1.429-.677a9.6 9.6 0 0 0 1.728-1.083c.64-.506 1.143-1.06 1.347-1.576l.037-.104c.266-.83.493-2.172.536-3.428.022-.628-.003-1.207-.082-1.674-.084-.495-.21-.752-.3-.849l.804-1.13a22 22 0 0 0 3.812 1.233c.729.158 1.44.261 2.073.274.638.014 1.14-.066 1.491-.226l.073-.035c.52-.268 1.095-.712 1.762-1.255.647-.527 1.373-1.139 2.13-1.653 1.19-.808 2.602-1.473 4.152-1.215-.144-.312-.346-.588-.61-.774-.488-.343-1.464-.56-3.355.504l-.111.063-.127.02c-1.741.276-5.662-.236-8.049-4.242l-.478-.802.904-.243a11.1 11.1 0 0 0 2.815-1.244c1.035-.649 1.895-1.464 2.252-2.407l.035-.099c.512-1.492.928-2.463 1.352-3.19.434-.744.863-1.21 1.354-1.699.604-.602 1.45-.665 2.087-.604q.21.021.412.06a4.8 4.8 0 0 0-.41-.877c-.39-.643-.9-1.066-1.563-1.128l-.065-.005c-.171-.01-.466.041-.91.197a14 14 0 0 0-1.5.652c-.566.277-1.175.598-1.814.935-.637.336-1.302.689-1.965 1.021-1.313.66-2.678 1.273-3.874 1.536-1.162.256-2.454.237-3.25-.788l-.004-.005-.004-.006-.05-.066-.005-.008-.006-.008c-.602-.857-.778-1.726-.68-2.572.096-.816.444-1.575.815-2.245.187-.338.39-.67.58-.983.194-.318.374-.615.532-.906.322-.591.501-1.068.512-1.48v-.085c-.034-1.068-.284-1.986-.498-2.927-.205-.901-.394-1.883-.103-2.856l.003-.01.004-.01.05-.15.003-.009.003-.01c.202-.553.34-1.35.425-2.162.036-.337.061-.668.079-.97a7.3 7.3 0 0 0-1.546.98c-.872.729-1.598 1.72-1.797 3.008v.005l-.002.005-.06.352v.009000000000000001a16.1 16.1 0 0 1-1.969 5.207c-.432.721-.9 1.355-1.374 1.845-.459.475-.98.876-1.527 1.032l-.56.16-.266-.517c-.52-1.005-.371-2.148-.142-2.963.12-.422.27-.795.404-1.075a5 5 0 0 1 .188-.36c.028-.049.07-.119.12-.187.666-1.151 1.238-2.638 1.462-4.085l.001-.01.035-.205v-.005l.002-.004c.422-2.317 1.746-3.992 3.063-5.092 1.332-1.113 2.816-1.78 3.898-2.078L79.542 0zM48.163 40.591c.67.681 1.842 1.714 3.15 2.571 1.337.876 2.691 1.484 3.758 1.484 2.152 0 4.38-.48 6.062-1.24.841-.38 1.515-.816 1.974-1.268.458-.453.657-.875.674-1.245v-.054h1.42l-.001.102c-.048 1.554-1.166 3.072-2.891 4.167-1.75 1.111-4.223 1.86-7.238 1.86-4.417 0-6.537-.905-7.415-1.454-.86.537-2.909 1.417-7.137 1.454h-.277c-3.018 0-5.492-.75-7.243-1.863-1.723-1.095-2.84-2.612-2.886-4.165l-.002-.1h1.42v.045l.005.07c.036.355.236.753.666 1.179.458.453 1.131.89 1.973 1.27 1.683.76 3.913 1.242 6.067 1.242l.1-.002c1.05-.036 2.363-.634 3.657-1.482a20.4 20.4 0 0 0 3.15-2.57l.507-.516zM31.445 28.62c1.929-.515 3.719.038 4.575 1.358.884 1.362.563 3.192-1.024 4.774l-.066.066-.081.047c-2.028 1.164-3.525 1.457-4.65 1.227-1.085-.22-1.676-.895-1.987-1.397l-.059-.098c-.195-.337-.306-.814-.331-1.306a4.6 4.6 0 0 1 .237-1.709c.42-1.234 1.432-2.44 3.386-2.962M59.292 29.978c.857-1.32 2.647-1.873 4.575-1.358 1.954.522 2.967 1.728 3.386 2.962.205.602.265 1.198.238 1.709-.024.461-.122.91-.296 1.242l-.035.064c-.294.508-.89 1.26-2.046 1.495-1.125.23-2.622-.063-4.65-1.227l-.082-.047-.066-.066c-1.586-1.582-1.908-3.412-1.024-4.774"/></svg>
